map_marker_monochrome/openmoji_greta_thunberg.svg

<svg xmlns="http://www.w3.org/2000/svg" width="24" height="24" viewBox="0 0 24 24"> <g transform="scale(0.333333333)">  <g id="line">
    <path fill="none" stroke="#000" stroke-linecap="round" stroke-linejoin="round" stroke-width="2" d="M36,20c8-3,12,5,12,10,.6-9-3-15.5-12-15.5"/>
    <path fill="none" stroke="#000" stroke-linecap="round" stroke-linejoin="round" stroke-width="2" d="M36,20c-8-3-12,5-12,10-.6-9,3-15.5,12-15.5"/>
    <path d="M41.6,29a1.8,1.8,0,1,1-1.8-1.8A1.7925,1.7925,0,0,1,41.6,29"/>
    <path d="M33.6,29a1.8,1.8,0,1,1-1.8-1.8A1.7925,1.7925,0,0,1,33.6,29"/>
    <path d="M38.5,51A1.5,1.5,0,1,1,37,49.5,1.538,1.538,0,0,1,38.5,51"/>
    <path fill="none" stroke="#000" stroke-linecap="round" stroke-linejoin="round" stroke-width="2" d="M33,36.5a6.6712,6.6712,0,0,0,6,0"/>
    <path fill="none" stroke="#000" stroke-miterlimit="10" stroke-width="2" d="M26.8,22.3A15.6515,15.6515,0,0,0,25,30c0,7.2,3.7,13,11,13s11-5.8,11-13a16.3259,16.3259,0,0,0-1.8-7.8"/>
    <path fill="none" stroke="#000" stroke-linecap="round" stroke-linejoin="round" stroke-width="2" d="M43.6,40a1.33,1.33,0,0,0,.3.8,2.2524,2.2524,0,0,0,.5.5c-.5,1-1.1,2.3-.4,3.4a7.365,7.365,0,0,0,.5.6c-.5,1.1-1.1,2.3-.4,3.4a2.6513,2.6513,0,0,0,.5.6h0c-.5,1.1-1.1,2.3-.4,3.4a1.6979,1.6979,0,0,0,.6.6v.1c-.5,1-1.1,2.2-.4,3.3a1.6979,1.6979,0,0,0,.6.6c0,.1-.1.1-.1.2-.5,1-1.1,2.2-.5,3.2a1.966,1.966,0,0,0,1.7.9,1.3671,1.3671,0,0,0,1.4-1.4.9748.9748,0,0,0-.4-.9c.1-.2.2-.3.2-.4.5-1,1.1-2.2.5-3.2-.1-.2-.3-.3-.5-.5,0-.1.1-.2.1-.3.5-1,1.1-2.2.4-3.3a2.2524,2.2524,0,0,0-.5-.5c0-.1.1-.1.1-.2.5-1.1,1.1-2.3.4-3.4-.1-.1-.2-.3-.4-.5a.0979.0979,0,0,1,.1-.1c.5-1.1,1.2-2.3.4-3.5-.1-.1-.2-.3-.4-.4v-.1c.5-1,1.2-2.4.4-3.5-.1-.1-.2-.3-.3-.4.5-1.1,1.2-2.4.4-3.6-.1-.1-.1-.2-.2-.3.6-1.1,1.2-2.5.4-3.8a2.56,2.56,0,0,0-1.3-1"/>
    <path fill="none" stroke="#000" stroke-linecap="round" stroke-linejoin="round" stroke-width="2" d="M28.4,40a1.33,1.33,0,0,1-.3.8,2.2524,2.2524,0,0,1-.5.5c.5,1,1.1,2.3.4,3.4a7.365,7.365,0,0,1-.5.6c.5,1.1,1.1,2.3.4,3.4a2.6513,2.6513,0,0,1-.5.6h0c.5,1.1,1.1,2.3.4,3.4a1.6979,1.6979,0,0,1-.6.6v.1c.5,1,1.1,2.2.4,3.3a1.6979,1.6979,0,0,1-.6.6c0,.1.1.1.1.2.5,1,1.1,2.2.5,3.2a1.966,1.966,0,0,1-1.7.9,1.3671,1.3671,0,0,1-1.4-1.4.9748.9748,0,0,1,.4-.9c-.1-.2-.2-.3-.2-.4-.5-1-1.1-2.2-.5-3.2.1-.2.3-.3.5-.5,0-.1-.1-.2-.1-.3-.5-1-1.1-2.2-.4-3.3a2.2524,2.2524,0,0,1,.5-.5c0-.1-.1-.1-.1-.2-.5-1.1-1.1-2.3-.4-3.4.1-.1.2-.3.4-.5a.0979.0979,0,0,0-.1-.1c-.5-1.1-1.2-2.3-.4-3.5.1-.1.2-.3.4-.4v-.1c-.5-1-1.2-2.4-.4-3.5.1-.1.2-.3.3-.4-.5-1.1-1.2-2.4-.4-3.6.1-.1.1-.2.2-.3-.6-1.1-1.2-2.5-.4-3.8a2.56,2.56,0,0,1,1.3-1"/>
    <path fill="none" stroke="#000" stroke-linecap="round" stroke-linejoin="round" stroke-width="2" d="M20.3,47.4a8.0936,8.0936,0,0,1,3.3-11.7"/>
    <path fill="none" stroke="#000" stroke-linecap="round" stroke-linejoin="round" stroke-width="2" d="M27.7,45.5A16.0657,16.0657,0,0,0,33,48.3"/>
    <path fill="none" stroke="#000" stroke-linecap="round" stroke-linejoin="round" stroke-width="2" d="M17,58V54c0-4,3.1-7.3,6.9-8.5"/>
    <path fill="none" stroke="#000" stroke-linecap="round" stroke-linejoin="round" stroke-width="2" d="M44.3,45.1,33,47V58"/>
    <path fill="none" stroke="#000" stroke-linecap="round" stroke-linejoin="round" stroke-width="2" d="M55,58V54c0-4-3.1-7.3-6.9-8.5"/>
    <path fill="none" stroke="#000" stroke-linecap="round" stroke-linejoin="round" stroke-width="2" d="M51.7,47.4A7.5782,7.5782,0,0,0,53,43a8.1434,8.1434,0,0,0-4.6-7.3"/>
  </g></g></svg>

<svg xmlns="http://www.w3.org/2000/svg" width="24" height="24" viewBox="0 0 24 24"> <g transform="translate(2.2241476668563855 0.0) scale(0.4887926166571807)">
  
  <g
     id="line"
     transform="translate(-16,-13.5)">
    <path
       fill="none"
       stroke="#000"
       stroke-linecap="round"
       stroke-linejoin="round"
       stroke-width="2"
       d="M 36,20 C 44,17 48,25 48,30 48.6,21 45,14.5 36,14.5"
       id="path2" />
    <path
       fill="none"
       stroke="#000"
       stroke-linecap="round"
       stroke-linejoin="round"
       stroke-width="2"
       d="M 36,20 C 28,17 24,25 24,30 23.4,21 27,14.5 36,14.5"
       id="path4" />
    <path
       d="M 41.6,29 A 1.8,1.8 0 1 1 39.8,27.2 1.7925,1.7925 0 0 1 41.6,29"
       id="path6" />
    <path
       d="M 33.6,29 A 1.8,1.8 0 1 1 31.8,27.2 1.7925,1.7925 0 0 1 33.6,29"
       id="path8" />
    <path
       d="M 38.5,51 A 1.5,1.5 0 1 1 37,49.5 1.538,1.538 0 0 1 38.5,51"
       id="path10" />
    <path
       fill="none"
       stroke="#000"
       stroke-linecap="round"
       stroke-linejoin="round"
       stroke-width="2"
       d="m 33,36.5 a 6.6712,6.6712 0 0 0 6,0"
       id="path12" />
    <path
       fill="none"
       stroke="#000"
       stroke-miterlimit="10"
       stroke-width="2"
       d="M 26.8,22.3 A 15.6515,15.6515 0 0 0 25,30 c 0,7.2 3.7,13 11,13 7.3,0 11,-5.8 11,-13 a 16.3259,16.3259 0 0 0 -1.8,-7.8"
       id="path14" />
    <path
       fill="none"
       stroke="#000"
       stroke-linecap="round"
       stroke-linejoin="round"
       stroke-width="2"
       d="m 43.6,40 a 1.33,1.33 0 0 0 0.3,0.8 2.2524,2.2524 0 0 0 0.5,0.5 c -0.5,1 -1.1,2.3 -0.4,3.4 a 7.365,7.365 0 0 0 0.5,0.6 c -0.5,1.1 -1.1,2.3 -0.4,3.4 a 2.6513,2.6513 0 0 0 0.5,0.6 v 0 c -0.5,1.1 -1.1,2.3 -0.4,3.4 a 1.6979,1.6979 0 0 0 0.6,0.6 v 0.1 c -0.5,1 -1.1,2.2 -0.4,3.3 a 1.6979,1.6979 0 0 0 0.6,0.6 c 0,0.1 -0.1,0.1 -0.1,0.2 -0.5,1 -1.1,2.2 -0.5,3.2 a 1.966,1.966 0 0 0 1.7,0.9 1.3671,1.3671 0 0 0 1.4,-1.4 0.9748,0.9748 0 0 0 -0.4,-0.9 c 0.1,-0.2 0.2,-0.3 0.2,-0.4 0.5,-1 1.1,-2.2 0.5,-3.2 -0.1,-0.2 -0.3,-0.3 -0.5,-0.5 0,-0.1 0.1,-0.2 0.1,-0.3 0.5,-1 1.1,-2.2 0.4,-3.3 a 2.2524,2.2524 0 0 0 -0.5,-0.5 c 0,-0.1 0.1,-0.1 0.1,-0.2 0.5,-1.1 1.1,-2.3 0.4,-3.4 -0.1,-0.1 -0.2,-0.3 -0.4,-0.5 a 0.0979,0.0979 0 0 1 0.1,-0.1 C 48,45.8 48.7,44.6 47.9,43.4 47.8,43.3 47.7,43.1 47.5,43 v -0.1 c 0.5,-1 1.2,-2.4 0.4,-3.5 -0.1,-0.1 -0.2,-0.3 -0.3,-0.4 0.5,-1.1 1.2,-2.4 0.4,-3.6 -0.1,-0.1 -0.1,-0.2 -0.2,-0.3 0.6,-1.1 1.2,-2.5 0.4,-3.8 a 2.56,2.56 0 0 0 -1.3,-1"
       id="path16" />
    <path
       fill="none"
       stroke="#000"
       stroke-linecap="round"
       stroke-linejoin="round"
       stroke-width="2"
       d="m 28.4,40 a 1.33,1.33 0 0 1 -0.3,0.8 2.2524,2.2524 0 0 1 -0.5,0.5 c 0.5,1 1.1,2.3 0.4,3.4 a 7.365,7.365 0 0 1 -0.5,0.6 c 0.5,1.1 1.1,2.3 0.4,3.4 a 2.6513,2.6513 0 0 1 -0.5,0.6 v 0 c 0.5,1.1 1.1,2.3 0.4,3.4 a 1.6979,1.6979 0 0 1 -0.6,0.6 v 0.1 c 0.5,1 1.1,2.2 0.4,3.3 A 1.6979,1.6979 0 0 1 27,57.3 c 0,0.1 0.1,0.1 0.1,0.2 0.5,1 1.1,2.2 0.5,3.2 a 1.966,1.966 0 0 1 -1.7,0.9 1.3671,1.3671 0 0 1 -1.4,-1.4 0.9748,0.9748 0 0 1 0.4,-0.9 c -0.1,-0.2 -0.2,-0.3 -0.2,-0.4 -0.5,-1 -1.1,-2.2 -0.5,-3.2 0.1,-0.2 0.3,-0.3 0.5,-0.5 0,-0.1 -0.1,-0.2 -0.1,-0.3 -0.5,-1 -1.1,-2.2 -0.4,-3.3 a 2.2524,2.2524 0 0 1 0.5,-0.5 C 24.7,51 24.6,51 24.6,50.9 24.1,49.8 23.5,48.6 24.2,47.5 24.3,47.4 24.4,47.2 24.6,47 A 0.0979,0.0979 0 0 0 24.5,46.9 C 24,45.8 23.3,44.6 24.1,43.4 24.2,43.3 24.3,43.1 24.5,43 V 42.9 C 24,41.9 23.3,40.5 24.1,39.4 24.2,39.3 24.3,39.1 24.4,39 23.9,37.9 23.2,36.6 24,35.4 24.1,35.3 24.1,35.2 24.2,35.1 23.6,34 23,32.6 23.8,31.3 a 2.56,2.56 0 0 1 1.3,-1"
       id="path18" />
    <path
       fill="none"
       stroke="#000"
       stroke-linecap="round"
       stroke-linejoin="round"
       stroke-width="2"
       d="M 20.3,47.4 A 8.0936,8.0936 0 0 1 23.6,35.7"
       id="path20" />
    <path
       fill="none"
       stroke="#000"
       stroke-linecap="round"
       stroke-linejoin="round"
       stroke-width="2"
       d="M 27.7,45.5 A 16.0657,16.0657 0 0 0 33,48.3"
       id="path22" />
    <path
       fill="none"
       stroke="#000"
       stroke-linecap="round"
       stroke-linejoin="round"
       stroke-width="2"
       d="m 17,58 v -4 c 0,-4 3.1,-7.3 6.9,-8.5"
       id="path24" />
    <path
       fill="none"
       stroke="#000"
       stroke-linecap="round"
       stroke-linejoin="round"
       stroke-width="2"
       d="M 44.3,45.1 33,47 v 11"
       id="path26" />
    <path
       fill="none"
       stroke="#000"
       stroke-linecap="round"
       stroke-linejoin="round"
       stroke-width="2"
       d="m 55,58 v -4 c 0,-4 -3.1,-7.3 -6.9,-8.5"
       id="path28" />
    <path
       fill="none"
       stroke="#000"
       stroke-linecap="round"
       stroke-linejoin="round"
       stroke-width="2"
       d="M 51.7,47.4 A 7.5782,7.5782 0 0 0 53,43 8.1434,8.1434 0 0 0 48.4,35.7"
       id="path30" />
  </g>
</g></svg>
